svgs/sharp-regular/3.svg

<svg xmlns="http://www.w3.org/2000/svg" viewBox="0 0 320 512"><!--! Font Awesome Pro 6.6.0 by @fontawesome - https://fontawesome.com License - https://fontawesome.com/license (Commercial License) Copyright 2024 Fonticons, Inc. --><path d="M304 32l-24 0L24 32 0 32 0 80l24 0 196.3 0L71.4 222.7 64 229.8 64 264l24 0 100 0c46.4 0 84 37.6 84 84s-37.6 84-84 84l-90.6 0c-21.2 0-40.6-12-50.1-31l-1.9-3.8L2.5 418.7l1.9 3.8C22 457.7 58.1 480 97.4 480l90.6 0c72.9 0 132-59.1 132-132s-59.1-132-132-132l-40.3 0L296.6 73.3l7.4-7.1L304 32z"/></svg>

<svg xmlns="http://www.w3.org/2000/svg" viewBox="0 0 320 512"><!--! Font Awesome Pro 6.4.2 by @fontawesome - https://fontawesome.com License - https://fontawesome.com/license (Commercial License) Copyright 2023 Fonticons, Inc. --><path d="M304 32H280 24 0V80H24 220.3L71.4 222.7 64 229.8V264H88 188c46.4 0 84 37.6 84 84s-37.6 84-84 84H97.4c-21.2 0-40.6-12-50.1-31l-1.9-3.8L2.5 418.7l1.9 3.8C22 457.7 58.1 480 97.4 480H188c72.9 0 132-59.1 132-132s-59.1-132-132-132H147.7L296.6 73.3l7.4-7.1V32z"/></svg>
